static/logos/remote-glyph-color.svg

<svg width="38" height="50" viewBox="0 0 38 50" fill="none" xmlns="http://www.w3.org/2000/svg">
<g clip-path="url(#clip0_1_1265)">
<path d="M36.1552 37.4997H36.6379V48.6204H34.7931C22.8621 48.6204 15.9655 41.879 15.9655 30.8617V25.1721L19.8448 24.2238C20.9771 23.9376 22.0067 23.3402 22.8172 22.4991C23.6278 21.6583 24.1867 20.6072 24.431 19.4652C24.6722 18.3264 24.5867 17.1427 24.184 16.0505C23.7812 14.9584 23.0779 14.0024 22.1552 13.2928C21.2316 12.5818 20.1279 12.1421 18.9684 12.023C17.8088 11.9038 16.639 12.11 15.5901 12.6184C14.5411 13.1268 13.6544 13.9172 13.0295 14.9012C12.4045 15.8852 12.0659 17.0238 12.0517 18.1893V42.4824H0V17.7583C0 17.0169 0.0517241 16.2755 0.137931 15.5342C0.768855 11.1818 2.95964 7.20689 6.30255 4.34923C9.64548 1.49157 13.9128 -0.0541701 18.3103 -0.000317313C22.2948 -0.0395754 26.1831 1.22448 29.3828 3.59933C32.5824 5.9742 34.9183 9.32971 36.0345 13.1549C37.1379 17.1204 36.7759 21.3617 35.0345 25.0859C33.5529 28.2528 31.1802 30.919 28.2069 32.7583C29.2069 36.7755 31.3103 37.5169 36.0172 37.5169L36.1552 37.4997Z" fill="#4F0AF5"/>
</g>
<defs>
<clipPath id="clip0_1_1265">
<rect width="37.931" height="50" fill="white"/>
</clipPath>
</defs>
</svg>

<svg xmlns="http://www.w3.org/2000/svg" width="48.64" height="64" fill="none" viewBox="0 0 38 50"><g clip-path="url(#a)"><path fill="#4F0AF5" d="M36.155 37.5h.483v11.12h-1.845c-11.93 0-18.828-6.741-18.828-17.758v-5.69l3.88-.948a6.257 6.257 0 0 0 4.586-4.759 6.173 6.173 0 0 0-2.276-6.172 6.276 6.276 0 0 0-10.103 4.896v24.293H0V17.758c0-.741.052-1.482.138-2.224A18.138 18.138 0 0 1 18.31 0a18.276 18.276 0 0 1 17.725 13.155 17.272 17.272 0 0 1-1 11.93 17.982 17.982 0 0 1-6.828 7.673c1 4.017 3.103 4.759 7.81 4.759l.138-.017Z"/></g><defs><clipPath id="a"><path fill="#fff" d="M0 0h37.931v50H0z"/></clipPath></defs></svg>
